X:15
T:Miss Campbells Reel. LIT.015
M:2/4
Q:1/4=140
L:1/8
B:Wm. Litten MS, 1802
Z:Village Music Project 2017 Anne Wride
K:D
f | d2 Ad | fd Af | ge fd | eE Ec |
d2 Ad | fd Af | gb eg | fd d :|
|: g | fd ad | bd ad | fd b/a/g/f/ | ge eg |
ad bd | ad fd | cdeg | fd dg |
fd ad | bd ad | fa df | ge eg |
af da | ba ed | cd eg | fd d :|

